X:5825
T:Sonny's Mazurka
M:3/4
O:Ireland
R:Mazurka
Z:Richard Robinson 
%%TUNEURL: http://www.leeds.ac.uk/music/Info/RRTuneBk/gettune/0000087f.html
%%ID:0000087f
K:D
FG|\
A2AGFA|d2dABA|G2GBAG|FG EF DF|\
A2AGFA|d2dABA|G2Ggfe|d4::
de|\
f2fagf|e2egfe|d2dfed|cd Bc Ad|\
f2fagf|e2egfe|dc df ec|d4:|
